trs-80/_inc/system.svg

<svg xmlns="http://www.w3.org/2000/svg"><g fill="#fff"><path d="m434.546 87.273c-5.021 0-9.091 4.07-9.091 9.092 0 5.02 4.07 9.091 9.091 9.091 5.019 0 9.091-4.071 9.091-9.091 0-5.022-4.07-9.092-9.091-9.092zm-316.364 0c-5.02 0-9.091 4.07-9.091 9.092 0 5.02 4.071 9.091 9.091 9.091 5.021 0 9.092-4.071 9.092-9.091 0-5.022-4.071-9.092-9.092-9.092zm52.728 9.092c0 5.02 4.07 9.091 9.091 9.091 5.02 0 9.091-4.071 9.091-9.091 0-5.021-4.071-9.092-9.091-9.092-5.021 0-9.091 4.07-9.091 9.092zm92.727-9.092c-5.02 0-9.091 4.07-9.091 9.092 0 5.02 4.071 9.091 9.091 9.091 5.021 0 9.091-4.071 9.091-9.091 0-5.022-4.071-9.092-9.091-9.092zm318.99-87.273h-565.253c-9.595 0-17.374 7.778-17.374 17.374v136.162c0 9.594 7.779 17.374 17.374 17.374h565.252c9.595 0 17.374-7.778 17.374-17.374v-136.162c.001-9.596-7.778-17.374-17.373-17.374zm-506.263 116.365-10.91-18.182v18.182h-21.818v-69.093h32.727c10.909 0 21.819 7.273 21.819 21.819 0 14.545-10.91 18.182-14.546 18.182l18.182 29.092zm36.364 0c-7.272 0-14.545-7.274-14.545-18.182 0-12.394 10.908-14.547 14.545-14.5 1.326.018 6.196-.047 7.273-.047 7.273 0 3.637-7.273 0-7.273-3.636 0-14.545 0-14.545 0v-14.545h29.091c7.273 0 10 7.273 10 14.545 0 7.273.909 40 .909 40h-32.728zm94.545 0s-14.545 0-29.091 0c-21.818 0-25.454-18.182-25.454-29.092 0-6.689 3.636-25.455 25.454-25.455h7.273v-14.546h21.819v69.093zm25.455 0h-18.182v-54.547h18.182zm30.909 0c-15.062 0-27.273-12.21-27.273-27.273 0-15.062 12.21-27.274 27.273-27.274s27.273 12.21 27.273 27.274c0 15.061-12.21 27.273-27.273 27.273zm92.727-47.274c-7.272 0-10.909 3.636-10.909 10.909v14.545c0 14.546-3.636 21.82-32.727 21.82 0-14.547 0-21.82 0-21.82 7.273 0 14.545 0 14.545-10.909s0-10.909 0-18.182 3.637-18.182 29.091-18.182zm54.545 47.274h-21.817v-32.729c0-3.636-7.274-3.636-7.274 0v32.729h-18.182v-69.093h18.182v18.182c7.274-7.273 29.091-3.636 29.091 10.909zm18.182 0c-7.273 0-14.545-7.274-14.545-18.182 0-12.394 10.909-14.547 14.545-14.5 1.325.018 6.197-.047 7.274-.047 7.273 0 3.636-7.273 0-7.273-3.637 0-14.547 0-14.547 0v-14.545h29.091c7.273 0 10 7.273 10 14.545 0 7.273.909 40 .909 40h-32.727zm90.751-24.317-19.121-.018c-1.54-2.833-4.542-4.757-7.993-4.757-5.02 0-9.091 4.069-9.091 9.091 0 5.021 4.07 9.091 9.091 9.091 3.503 0 6.543-1.982 8.061-4.885l16.685-.002c-4.332 9.329-13.785 15.796-24.746 15.796-15.063 0-27.273-12.21-27.273-27.272s12.21-27.274 27.273-27.274c15.062 0 27.272 12.21 27.272 27.274.001.998-.053 1.985-.158 2.956zm29.25 24.317-7.273-21.82h-3.637v21.82h-14.545v-69.093h14.545v29.092h3.637l7.273-10.909h18.182l-10.91 18.182 14.546 32.728zm-481.819-43.638c-5.021 0-9.091 4.071-9.091 9.091 0 5.021 4.07 9.091 9.091 9.091s9.091-4.07 9.091-9.091c0-5.02-4.07-9.091-9.091-9.091z"/><path d="m130.842 190h53.267v10.654h-21.306v37.287h-10.654v-37.287h-21.307z"/><path d="m207.945 219.297v18.643h-10.653v-47.94h37.286c10.655 0 15.982 4.865 15.982 14.595 0 4.617-.764 8.008-2.291 10.174 1.527 2.522 2.291 5.806 2.291 9.855v13.316h-10.653v-13.316c0-3.552-1.776-5.327-5.329-5.327zm0-10.654h31.96v-7.99h-31.96z"/><path d="m328.976 219.297v-7.99h18.403v7.99z"/><path d="m412.296 200.654h-42.295v7.99h26.636c10.653 0 15.98 4.883 15.98 14.649s-5.327 14.648-15.98 14.648h-21.307c-9.02 0-14.222-3.551-15.607-10.654h42.239v-7.99h-26.633c-10.654 0-15.982-4.811-15.982-14.435 0-9.908 5.328-14.861 15.982-14.861h21.307c9.09-.001 14.311 3.551 15.66 10.653zm-52.573 26.633c-.25-1.278-.373-2.68-.373-4.208 0-3.764.815-6.8 2.449-9.109 2.557 3.552 7.066 5.327 13.531 5.327h-5.328v7.99zm50.389-13.317c1.669-2.343 2.504-5.45 2.504-9.321 0-1.42-.106-2.752-.32-3.995h-10.334v7.99h-5.328c6.429-.001 10.921 1.775 13.478 5.326z"/><path d="m421.217 221.961v-15.98c0-10.654 5.326-15.981 15.979-15.981h15.982c10.654 0 15.98 5.327 15.98 15.981v15.98c0 10.653-5.326 15.98-15.98 15.98h-15.982c-10.653-.001-15.979-5.327-15.979-15.98zm31.961 5.326c3.548 0 5.325-1.775 5.325-5.326v-15.98c0-3.552-1.776-5.327-5.325-5.327h-15.982c-3.552 0-5.327 1.775-5.327 5.327v15.98c0 3.551 1.775 5.326 5.327 5.326z"/><path d="m261.829 222.026h13.755c0 3.438 1.935 5.803 4.62 5.803h24.771c1.934 0 2.578-1.397 2.578-3.332 0-1.933.859-6.124-3.008-6.124-3.869 0-26.491 0-30.251 0s-12.572-3.116-12.572-13.646c0-10.531 6.876-14.399 11.713-14.399h36.533c4.406 0 8.487 2.041 8.487 13.324-3.224 0-12.999 0-12.999 0 0-2.471-1.291-4.216-5.803-4.216s-16.174 0-19.397 0c-3.224 0-4.405.241-4.405 5.291s2.901 4.645 5.048 4.645h30.68c5.265 0 10.209 5.347 10.209 13.621s-3.976 15.314-12.465 15.314c-8.488 0-32.126 0-36.427 0-4.296.001-11.067-2.097-11.067-16.281z"/></g></svg>

<?xml version="1.0" encoding="utf-8"?>
<svg version="1.1" xmlns="http://www.w3.org/2000/svg">
  <path d="M 434.546 87.273 C 429.525 87.273 425.455 91.343 425.455 96.365 C 425.455 101.385 429.525 105.456 434.546 105.456 C 439.565 105.456 443.637 101.385 443.637 96.365 C 443.637 91.343 439.567 87.273 434.546 87.273 Z M 118.182 87.273 C 113.162 87.273 109.091 91.343 109.091 96.365 C 109.091 101.385 113.162 105.456 118.182 105.456 C 123.203 105.456 127.274 101.385 127.274 96.365 C 127.274 91.343 123.203 87.273 118.182 87.273 Z M 170.91 96.365 C 170.91 101.385 174.98 105.456 180.001 105.456 C 185.021 105.456 189.092 101.385 189.092 96.365 C 189.092 91.344 185.021 87.273 180.001 87.273 C 174.98 87.273 170.91 91.343 170.91 96.365 Z M 263.637 87.273 C 258.617 87.273 254.546 91.343 254.546 96.365 C 254.546 101.385 258.617 105.456 263.637 105.456 C 268.658 105.456 272.728 101.385 272.728 96.365 C 272.728 91.343 268.657 87.273 263.637 87.273 Z M 582.627 0 L 17.374 0 C 7.779 0 0 7.778 0 17.374 L 0 153.536 C 0 163.13 7.779 170.91 17.374 170.91 L 582.626 170.91 C 592.221 170.91 600 163.132 600 153.536 L 600 17.374 C 600.001 7.778 592.222 0 582.627 0 Z M 76.364 116.365 L 65.454 98.183 L 65.454 116.365 L 43.636 116.365 L 43.636 47.272 L 76.363 47.272 C 87.272 47.272 98.182 54.545 98.182 69.091 C 98.182 83.636 87.272 87.273 83.636 87.273 L 101.818 116.365 L 76.364 116.365 Z M 112.728 116.365 C 105.456 116.365 98.183 109.091 98.183 98.183 C 98.183 85.789 109.091 83.636 112.728 83.683 C 114.054 83.701 118.924 83.636 120.001 83.636 C 127.274 83.636 123.638 76.363 120.001 76.363 C 116.365 76.363 105.456 76.363 105.456 76.363 L 105.456 61.818 L 134.547 61.818 C 141.82 61.818 144.547 69.091 144.547 76.363 C 144.547 83.636 145.456 116.363 145.456 116.363 L 112.728 116.363 L 112.728 116.365 Z M 207.273 116.365 C 207.273 116.365 192.728 116.365 178.182 116.365 C 156.364 116.365 152.728 98.183 152.728 87.273 C 152.728 80.584 156.364 61.818 178.182 61.818 L 185.455 61.818 L 185.455 47.272 L 207.274 47.272 L 207.274 116.365 L 207.273 116.365 Z M 232.728 116.365 L 214.546 116.365 L 214.546 61.818 L 232.728 61.818 L 232.728 116.365 Z M 263.637 116.365 C 248.575 116.365 236.364 104.155 236.364 89.092 C 236.364 74.03 248.574 61.818 263.637 61.818 C 278.7 61.818 290.91 74.028 290.91 89.092 C 290.91 104.153 278.7 116.365 263.637 116.365 Z M 356.364 69.091 C 349.092 69.091 345.455 72.727 345.455 80 C 345.455 87.272 345.455 83.636 345.455 94.545 C 345.455 109.091 341.819 116.365 312.728 116.365 C 312.728 101.818 312.728 94.545 312.728 94.545 C 320.001 94.545 327.273 94.545 327.273 83.636 C 327.273 72.727 327.273 72.727 327.273 65.454 C 327.273 58.181 330.91 47.272 356.364 47.272 C 356.364 54.545 356.364 69.091 356.364 69.091 Z M 410.909 116.365 L 389.092 116.365 L 389.092 83.636 C 389.092 80 381.818 80 381.818 83.636 C 381.818 87.273 381.818 116.365 381.818 116.365 L 363.636 116.365 L 363.636 47.272 L 381.818 47.272 L 381.818 65.454 C 389.092 58.181 410.909 61.818 410.909 76.363 C 410.909 90.909 410.909 116.365 410.909 116.365 Z M 429.091 116.365 C 421.818 116.365 414.546 109.091 414.546 98.183 C 414.546 85.789 425.455 83.636 429.091 83.683 C 430.416 83.701 435.288 83.636 436.365 83.636 C 443.638 83.636 440.001 76.363 436.365 76.363 C 432.728 76.363 421.818 76.363 421.818 76.363 L 421.818 61.818 L 450.909 61.818 C 458.182 61.818 460.909 69.091 460.909 76.363 C 460.909 83.636 461.818 116.363 461.818 116.363 L 429.091 116.363 L 429.091 116.365 Z M 519.842 92.048 L 500.721 92.03 C 499.181 89.197 496.179 87.273 492.728 87.273 C 487.708 87.273 483.637 91.342 483.637 96.364 C 483.637 101.385 487.707 105.455 492.728 105.455 C 496.231 105.455 499.271 103.473 500.789 100.57 L 517.474 100.568 C 513.142 109.897 503.689 116.364 492.728 116.364 C 477.665 116.364 465.455 104.154 465.455 89.092 C 465.455 74.03 477.665 61.818 492.728 61.818 C 507.79 61.818 520 74.028 520 89.092 C 520.001 90.09 519.947 91.077 519.842 92.048 Z M 549.092 116.365 L 541.819 94.545 L 538.182 94.545 L 538.182 116.365 L 523.637 116.365 L 523.637 47.272 L 538.182 47.272 L 538.182 76.364 L 541.819 76.364 L 549.092 65.455 L 567.274 65.455 L 556.364 83.637 L 570.91 116.365 L 549.092 116.365 L 549.092 116.365 Z M 67.273 72.727 C 62.252 72.727 58.182 76.798 58.182 81.818 C 58.182 86.839 62.252 90.909 67.273 90.909 C 72.294 90.909 76.364 86.839 76.364 81.818 C 76.364 76.798 72.294 72.727 67.273 72.727 Z" style="fill: rgb(255, 255, 255);"/>
  <path d="M 130.842 190 C 130.842 190 184.109 190 184.109 190 L 184.109 200.654 L 162.803 200.654 L 162.803 237.941 L 152.149 237.941 L 152.149 200.654 L 130.842 200.654 L 130.842 190 C 130.842 190 130.842 190 130.842 190 Z" style="fill: rgb(255, 255, 255);"/>
  <path d="M 207.945 219.297 L 207.945 237.94 L 197.292 237.94 L 197.292 190 L 234.578 190 C 245.233 190 250.56 194.865 250.56 204.595 C 250.56 209.212 249.796 212.603 248.269 214.769 C 249.796 217.291 250.56 220.575 250.56 224.624 L 250.56 237.94 L 239.907 237.94 L 239.907 224.624 C 239.907 221.072 238.131 219.297 234.578 219.297 L 207.945 219.297 Z M 207.945 208.643 L 239.905 208.643 L 239.905 200.653 L 207.945 200.653 L 207.945 208.643 Z" style="fill: rgb(255, 255, 255);"/>
  <path d="M 328.976 219.297 L 328.976 211.307 L 347.379 211.307 L 347.379 219.297 L 328.976 219.297 Z" style="fill: rgb(255, 255, 255);"/>
  <path d="M 412.296 200.654 L 370.001 200.654 L 370.001 208.644 L 396.637 208.644 C 407.29 208.644 412.617 213.527 412.617 223.293 C 412.617 233.059 407.29 237.941 396.637 237.941 L 375.33 237.941 C 366.31 237.941 361.108 234.39 359.723 227.287 L 401.962 227.287 L 401.962 219.297 L 375.329 219.297 C 364.675 219.297 359.347 214.486 359.347 204.862 C 359.347 194.954 364.675 190.001 375.329 190.001 L 396.636 190.001 C 405.726 190 410.947 193.552 412.296 200.654 Z M 359.723 227.287 C 359.473 226.009 359.35 224.607 359.35 223.079 C 359.35 219.315 360.165 216.279 361.799 213.97 C 364.356 217.522 368.865 219.297 375.33 219.297 L 370.002 219.297 L 370.002 227.287 L 359.723 227.287 L 359.723 227.287 Z M 410.112 213.97 C 411.781 211.627 412.616 208.52 412.616 204.649 C 412.616 203.229 412.51 201.897 412.296 200.654 L 401.962 200.654 L 401.962 208.644 L 396.634 208.644 C 403.063 208.643 407.555 210.419 410.112 213.97 Z" style="fill: rgb(255, 255, 255);"/>
  <path d="M 421.217 221.961 L 421.217 205.981 C 421.217 195.327 426.543 190 437.196 190 L 453.178 190 C 463.832 190 469.158 195.327 469.158 205.981 L 469.158 221.961 C 469.158 232.614 463.832 237.941 453.178 237.941 L 437.196 237.941 C 426.543 237.94 421.217 232.614 421.217 221.961 Z M 453.178 227.287 C 456.726 227.287 458.503 225.512 458.503 221.961 L 458.503 205.981 C 458.503 202.429 456.727 200.654 453.178 200.654 L 437.196 200.654 C 433.644 200.654 431.869 202.429 431.869 205.981 L 431.869 221.961 C 431.869 225.512 433.644 227.287 437.196 227.287 L 453.178 227.287 Z" style="fill: rgb(255, 255, 255);"/>
  <path d="M 261.829 222.026 L 275.584 222.026 C 275.584 225.464 277.519 227.829 280.204 227.829 C 282.89 227.829 303.04 227.829 304.975 227.829 C 306.909 227.829 307.553 226.432 307.553 224.497 C 307.553 222.564 308.412 218.373 304.545 218.373 C 300.676 218.373 278.054 218.373 274.294 218.373 C 270.534 218.373 261.722 215.257 261.722 204.727 C 261.722 194.196 268.598 190.328 273.435 190.328 C 278.269 190.328 305.563 190.328 309.968 190.328 C 314.374 190.328 318.455 192.369 318.455 203.652 C 315.231 203.652 305.456 203.652 305.456 203.652 C 305.456 201.181 304.165 199.436 299.653 199.436 C 295.141 199.436 283.479 199.436 280.256 199.436 C 277.032 199.436 275.851 199.677 275.851 204.727 C 275.851 209.777 278.752 209.372 280.899 209.372 C 283.049 209.372 306.315 209.372 311.579 209.372 C 316.844 209.372 321.788 214.719 321.788 222.993 C 321.788 231.267 317.812 238.307 309.323 238.307 C 300.835 238.307 277.197 238.307 272.896 238.307 C 268.6 238.308 261.829 236.21 261.829 222.026 Z" style="fill: rgb(255, 255, 255);"/>
</svg>
